X: 21130
T: Kas A Barh
R: reel
M: 4/4
K: Aminor
|:A2AB c3B|A2c2 B2B2|A2AB c3B|A2c2 B4:|
|:A2AB c3c|e2c2 B4|d2cB A3B|A2G2 A4:|
|:A2A2 A3B|cdcB A2A2|B2B2 B3d|c2B2 c2A2|
A2A2 A3B|cdcB A2A2|B2B2 B3d|c2B2 A4:|
e2e2 e2dc|dcde d2d2|c2c2 c2BA|B3c B2B2|
e2e2 e2dc|dcde d2d2|e2d2 B3d|c2B2 A4||

